X:1
T:Keep on Watching
T:Victor H. Benke
T:Keep on Watching
T:Public Domain
T:Public Domain
C:Victor H. Benke
Z:Public Domain
%%score ( 1 2 ) 3
L:1/8
M:3/4
K:D
V:1 treble 
V:2 treble 
V:3 bass 
V:1
 [DF]>[EG] | [FA]2 [FA]2 [DF]>[Fd] | [DB]2 E2 E[^DF] | [EG]3 [EB] [EA][CE] | [DF]4 [DF]>[EG] | %5
w: 1.~On the|hill- tops, on the|mount- ains, There are|gold- en light, For|the prom- ised|
w: 2.~O the|prom- ised morn is|dawn- ing, When the|of the King Shall|re- turn and|
w: 3.~Hal- le-|lu- jah! what a|mo- ment, When the|Christ shall rise, And|the trum- pet|
w: 4.~Keep on|watch- ing, be not|wear- y, For the|sure- ly come; He|has said, and|
 [FA]2 [DF]2 [FA]>[FB] | [Ec]2 [EA]2 [Ac][Ae] | [Ad]3 [Ac] [^Gc][GB] | A4 ||"^Refrain" [EA][Gc] | %10
w: morn is dawn- ing,|And its star is|grow- ing bright. *|||
w: come to Zi- on,|And His praise for-|ev- er sing. *|||
w: of the ag- es|Sound in tri- umph|from the skies! *|||
w: we be- lieve it,|He will take His|peo- ple home. *|||
 [Ge]2 [Gc]2 [GB][GA] | [Fd]2 [FA]2 [FB][DF] | [CA]2 [CE]2 [CA][CB] | [DA]4 [DB][Gc] | %14
w: ||||
w: ||||
w: ||||
w: ||||
 [Fd]2 [FA]2 [Af][Fe] | [Gd]2 [GB]2 [^Ec][EB] | [FA]2 [Fd]2 [Gd][Gc] | [Fd]4 |] %18
w: ||||
w: ||||
w: ||||
w: ||||
V:2
 x2 | x6 | x2 E2 E x | x6 | x6 | x6 | x6 | x6 | A4 || x2 | x6 | x6 | x6 | x6 | x6 | x6 | x6 | x4 |] %18
w: ||gleams of||||||||||||||||
w: ||ran- somed||||||||||||||||
w: ||dead in||||||||||||||||
w: ||Lord will||||||||||||||||
V:3
 [D,A,]>[D,A,] | [D,D]2 [D,D]2 [D,A,]>[D,A,] | [G,B,]2 [G,B,]2 [G,B,][F,A,] | %3
w: ~ ~|~ ~ ~ ~|~ ~ ~ ~|
 [E,B,]3 [D,G,] [C,G,][A,,A,] | [D,A,]4 [D,A,]>[D,A,] | [D,D]2 [D,A,]2 [D,A,]>[^D,A,] | %6
w: ~ ~ ~ ~|~ ~ ~|~ ~ ~ ~|
 [E,A,]2 [E,C]2 [E,E][E,C] | [E,F]3 [E,E] [E,E][E,D] | [A,,C]4 || [A,C][A,E] | %10
w: ~ ~ ~ ~|~ ~ ~ ~|~|Keep on|
 [A,C]2 [A,E]2 [A,D][A,C] | [D,D]2 [D,D]2 [D,D][D,A,] | [A,,A,]2 [A,,A,]2 [A,,G,][A,,G,] | %13
w: watch- ing, O ye|faith- ful, For the|time is draw- ing|
 [D,F,]4 [G,B,][E,A,] | [D,A,]2 [D,A,]2 [D,D][D,=C] | [G,B,]2 [G,D]2 [^G,B,][G,D] | %16
w: nigh— We shall|see the King of|glor- y With His|
 [A,D]2 [A,D]2 [A,E][A,E] | [D,D]4 |] %18
w: an- gels, by and|by.|

